icons/card-cramp.svg

<svg
  xmlns="http://www.w3.org/2000/svg"
  viewBox="0 0 500 500"
  width="500"
  height="500"
  fill="#ffffff"
>
  <path d="M460.4 335.2l-161.2-.2a34.6 34.6 0 0 0-34.5 34.5v36.1a34.4 34.4 0 0 0 34.4 34.5l161.2.2a34.5 34.5 0 0 0 34.5-34.5v-36.1a34.6 34.6 0 0 0-34.4-34.5zm-5.7 65l-108.5-.2v-24.8h108.5z" />
  <path d="M200.7 334.9l-161.1-.2A34.7 34.7 0 0 0 5 369.2v36.1a34.5 34.5 0 0 0 34.5 34.5l161.1.2a34.6 34.6 0 0 0 34.6-34.4v-36.2a34.6 34.6 0 0 0-34.5-34.5zm-5.7 65l-110.7-.2v-24.8H195z" />
  <path d="M460.5 197.7l-161.1-.2a34.7 34.7 0 0 0-34.6 34.5v36.1a34.6 34.6 0 0 0 34.5 34.5l161.1.2a34.7 34.7 0 0 0 34.6-34.5v-36.1a34.5 34.5 0 0 0-34.5-34.5zm-5.7 64.9H346.2v-24.9h108.7z" />
  <path d="M200.9 197.4l-161.2-.2a34.6 34.6 0 0 0-34.5 34.5v36.1a34.6 34.6 0 0 0 34.5 34.5l161.2.2a34.5 34.5 0 0 0 34.4-34.5v-36.1a34.4 34.4 0 0 0-34.4-34.5zm-5.7 64.9H86.6v-24.9h108.6z" />
  <path d="M299.1 165.1l161.2.2a34.6 34.6 0 0 0 34.5-34.5V94.7a34.6 34.6 0 0 0-34.5-34.5L299.2 60a34.5 34.5 0 0 0-34.5 34.4v36.2a34.4 34.4 0 0 0 34.4 34.5zm155.6-40H346.2v-24.9h108.5z" />
  <path d="M39.5 164.8l161.1.2a34.7 34.7 0 0 0 34.6-34.5V94.4a34.6 34.6 0 0 0-34.5-34.5l-161.1-.2A34.7 34.7 0 0 0 5 94.2v36.1a34.5 34.5 0 0 0 34.5 34.5zm155.5-40H86.6V99.9H195z" />
</svg>

<svg xmlns="http://www.w3.org/2000/svg" viewBox="0 0 500 500">
  <g id="card-view">
    <path id="card6" d="M460.4,335.2,299.2,335a34.6,34.6,0,0,0-34.5,34.5v36.1a34.4,34.4,0,0,0,34.4,34.5l161.2.2a34.5,34.5,0,0,0,34.5-34.5V369.7A34.6,34.6,0,0,0,460.4,335.2Zm-5.7,65L346.2,400V375.2H454.7Z"/>
    <path id="card5" d="M200.7,334.9l-161.1-.2A34.7,34.7,0,0,0,5,369.2v36.1a34.5,34.5,0,0,0,34.5,34.5l161.1.2a34.6,34.6,0,0,0,34.6-34.4V369.4A34.6,34.6,0,0,0,200.7,334.9Zm-5.7,65-110.7-.2V374.9H195Z"/>
    <path id="card4" d="M460.5,197.7l-161.1-.2A34.7,34.7,0,0,0,264.8,232v36.1a34.6,34.6,0,0,0,34.5,34.5l161.1.2A34.7,34.7,0,0,0,495,268.3V232.2A34.5,34.5,0,0,0,460.5,197.7Zm-5.7,64.9H346.2V237.7H454.9Z"/>
    <path id="card3" d="M200.9,197.4l-161.2-.2A34.6,34.6,0,0,0,5.2,231.7v36.1a34.6,34.6,0,0,0,34.5,34.5l161.2.2A34.5,34.5,0,0,0,235.3,268V231.9A34.4,34.4,0,0,0,200.9,197.4Zm-5.7,64.9H86.6V237.4H195.2Z"/>
    <path id="card2" d="M299.1,165.1l161.2.2a34.6,34.6,0,0,0,34.5-34.5V94.7a34.6,34.6,0,0,0-34.5-34.5L299.2,60a34.5,34.5,0,0,0-34.5,34.4v36.2A34.4,34.4,0,0,0,299.1,165.1Zm155.6-40H346.2V100.2H454.7Z"/>
    <path id="card1" d="M39.5,164.8l161.1.2a34.7,34.7,0,0,0,34.6-34.5V94.4a34.6,34.6,0,0,0-34.5-34.5L39.6,59.7A34.7,34.7,0,0,0,5,94.2v36.1A34.5,34.5,0,0,0,39.5,164.8Zm155.5-40H86.6V99.9H195Z"/>
  </g>
</svg>
